X:542
T:
S:Uppt. såsom samlaren hört klockaren Laugren i Alva spela den.
R:vals
O:Gotland, Alva
M:3/4
L:1/8
K:Bb
f2|(db)(ca)(Bg)|f2 f2 f2|(Ge)(Fd)(Ec)|B2 B2 B2|(Ac) (eg) (fe)|
(df) (ba) (gf)|(=ef) (gf) (_ec)|B4:|
K:F
|:AB|c2 (dc) B2|(Ac) (fa) (gf)|(eg) ba (gf)|(ed) (cB) (AB)|
c2 (dc) B2|(Ac) (fa) (gf)|(eg) (bc) (de)|f4:|
K:Bb
f2|(fb) (df) (Bd)|F2 F2 F2|(AB)(cd) e2|(eg) (gf) f2|
(fb) (df) (Bd)|F2 F2 F2|(Ac) (eg) (fA)|B4:|

